src/assets/svgs/logo-white.svg

<svg viewBox="0 0 150 50" xmlns="http://www.w3.org/2000/svg" xml:space="preserve" style="fill:#fff;fill-rule:evenodd;clip-rule:evenodd;stroke-linejoin:round;stroke-miterlimit:2"><path style="fill:#000;fill-rule:nonzero" d="M1.299 15.72H2.7V24H1.299z" transform="matrix(.03813 3.1406 -17.425 .21158 421.003 14.04)"/><path d="M-10.12 42.377c-3.945 0-6.948-1.005-9.008-3.016-2.061-2.01-3.091-5.138-3.091-9.385 0-4.498 1.03-7.727 3.091-9.687 2.06-1.96 5.063-2.94 9.008-2.94 3.946 0 6.949.98 9.009 2.94 2.061 1.96 3.091 5.189 3.091 9.687 0 4.247-1.03 7.375-3.091 9.385-2.06 2.011-5.063 3.016-9.009 3.016Zm0-5.164c2.036 0 3.525-.584 4.467-1.753.942-1.168 1.414-2.996 1.414-5.484 0-2.714-.472-4.63-1.414-5.748-.942-1.119-2.431-1.678-4.467-1.678-2.06 0-3.562.559-4.504 1.678-.942 1.118-1.413 3.034-1.413 5.748 0 2.488.471 4.316 1.413 5.484.942 1.169 2.444 1.753 4.504 1.753ZM5.071 42V17.726h5.201L20.6 32.237V17.726h6.107V42h-5.24L11.139 27.526V42H5.071ZM30.551 42V17.726h6.069v9.423l8.368-9.423h6.935l-8.669 9.913L52.451 42h-6.483l-6.483-10.479-2.865 3.129V42h-6.069ZM61.384 42v-8.933l-8.707-15.341h6.333l5.428 10.064 5.427-10.064h6.333l-8.707 15.341V42h-6.107ZM86.639 42.377c-3.945 0-6.948-1.005-9.009-3.016-2.06-2.01-3.091-5.138-3.091-9.385 0-4.498 1.031-7.727 3.091-9.687 2.061-1.96 5.064-2.94 9.009-2.94 3.945 0 6.948.98 9.009 2.94 2.06 1.96 3.091 5.189 3.091 9.687 0 4.247-1.031 7.375-3.091 9.385-2.061 2.011-5.064 3.016-9.009 3.016Zm0-5.164c2.035 0 3.524-.584 4.467-1.753.942-1.168 1.413-2.996 1.413-5.484 0-2.714-.471-4.63-1.413-5.748-.943-1.119-2.432-1.678-4.467-1.678-2.061 0-3.562.559-4.504 1.678-.943 1.118-1.414 3.034-1.414 5.748 0 2.488.471 4.316 1.414 5.484.942 1.169 2.443 1.753 4.504 1.753ZM101.829 42V17.726h6.069v9.611h9.499v-9.611h6.068V42h-6.068v-9.612h-9.499V42h-6.069Z" style="fill-rule:nonzero" transform="matrix(.95881 0 0 1 26.085 -12)"/><path d="m46.159 71-2.303-9.89h2.426l1.305 5.959 1.352-4.561V61.11h2.027l1.704 5.974 1.367-5.974h2.426L54.175 71h-2.288l-1.659-5.713L48.447 71h-2.288ZM57.722 71v-9.89h7.295v1.905h-4.822v2.073h4.254v1.935h-4.254v2.073h4.822V71h-7.295ZM66.199 71v-9.89h5.221c.994 0 1.743.236 2.25.707.507.471.76 1.136.76 1.996 0 .522-.099.96-.299 1.313-.2.353-.463.627-.791.822.45.164.804.404 1.06.721.256.318.384.794.384 1.429 0 .941-.277 1.661-.83 2.157-.553.497-1.346.745-2.38.745h-5.375Zm2.473-5.866h2.011c.43 0 .743-.097.937-.292.195-.194.292-.466.292-.814 0-.379-.097-.663-.292-.852-.194-.19-.548-.284-1.06-.284h-1.888v2.242Zm0 4.1h2.257c.45 0 .786-.092 1.006-.276.22-.185.33-.512.33-.983 0-.379-.107-.663-.322-.853-.215-.189-.584-.284-1.106-.284h-2.165v2.396ZM79.344 71v-9.89h4.285c1.003 0 1.848.167 2.534.499.686.333 1.208.866 1.566 1.598.358.732.538 1.702.538 2.91 0 1.699-.392 2.938-1.175 3.716S85.154 71 83.629 71h-4.285Zm2.473-1.904h1.474c.532 0 .98-.08 1.344-.238.363-.159.64-.453.829-.883.189-.43.284-1.05.284-1.858 0-.819-.084-1.452-.253-1.897-.169-.445-.435-.757-.799-.937-.363-.179-.832-.268-1.405-.268h-1.474v6.081ZM89.526 71v-9.89h7.294v1.905h-4.822v2.073h4.254v1.935h-4.254v2.073h4.822V71h-7.294ZM101.151 71.154c-.656 0-1.267-.049-1.835-.146a6.087 6.087 0 0 1-1.467-.423v-2.103c.45.194.95.353 1.497.476a7.189 7.189 0 0 0 1.559.184c.614 0 1.072-.056 1.374-.169.302-.113.453-.358.453-.737 0-.256-.074-.461-.222-.614-.149-.154-.389-.29-.722-.407a24.242 24.242 0 0 0-1.359-.423c-.676-.204-1.213-.432-1.613-.683-.399-.251-.685-.555-.86-.914-.174-.358-.261-.798-.261-1.32 0-.942.338-1.664 1.014-2.166.676-.501 1.674-.752 2.994-.752.574 0 1.132.043 1.674.13.543.087.983.187 1.321.3v2.119a7.168 7.168 0 0 0-2.626-.507c-.553 0-1.001.051-1.344.154-.343.102-.514.338-.514.706 0 .215.061.387.184.515s.335.243.637.345c.302.103.715.225 1.237.369.808.215 1.428.473 1.858.775.43.302.727.65.89 1.044.164.395.246.837.246 1.329 0 .87-.338 1.574-1.013 2.111-.676.538-1.71.807-3.102.807ZM106.525 61.11h2.472V71h-2.472zM115.494 71.154c-1.71 0-3.01-.433-3.901-1.298s-1.336-2.086-1.336-3.663c0-1.648.456-2.933 1.367-3.854.911-.921 2.252-1.382 4.023-1.382a11.4 11.4 0 0 1 1.636.107 8.43 8.43 0 0 1 1.389.323v2.119a6.22 6.22 0 0 0-1.374-.338 11.532 11.532 0 0 0-1.467-.092c-1.064 0-1.84.253-2.326.76s-.729 1.293-.729 2.357c0 .973.23 1.692.691 2.158.46.466 1.141.699 2.042.699.594 0 1.147-.082 1.658-.246v-1.873h-2.134V65.38h4.208v4.898c-.348.225-.832.428-1.452.607-.619.179-1.384.269-2.295.269ZM120.5 71v-9.89h2.119l4.208 5.913V61.11h2.487V71h-2.134l-4.208-5.897V71H120.5ZM134.029 71.154c-.655 0-1.267-.049-1.835-.146a6.1 6.1 0 0 1-1.467-.423v-2.103c.451.194.95.353 1.498.476a7.173 7.173 0 0 0 1.558.184c.614 0 1.073-.056 1.375-.169.302-.113.453-.358.453-.737 0-.256-.075-.461-.223-.614-.148-.154-.389-.29-.722-.407a23.979 23.979 0 0 0-1.359-.423c-.676-.204-1.213-.432-1.612-.683-.4-.251-.686-.555-.86-.914-.174-.358-.261-.798-.261-1.32 0-.942.338-1.664 1.013-2.166.676-.501 1.674-.752 2.995-.752.573 0 1.131.043 1.674.13a8.57 8.57 0 0 1 1.32.3v2.119a7.16 7.16 0 0 0-2.626-.507c-.553 0-1 .051-1.343.154-.343.102-.515.338-.515.706 0 .215.062.387.184.515.123.128.336.243.638.345.302.103.714.225 1.236.369.809.215 1.428.473 1.858.775.43.302.727.65.891 1.044.164.395.245.837.245 1.329 0 .87-.337 1.574-1.013 2.111-.676.538-1.71.807-3.102.807Z" style="fill-rule:nonzero" transform="matrix(1.01061 0 0 1 5.535 -26)"/></svg>

<?xml version="1.0" encoding="UTF-8" standalone="no"?>
<!DOCTYPE svg PUBLIC "-//W3C//DTD SVG 1.1//EN" "http://www.w3.org/Graphics/SVG/1.1/DTD/svg11.dtd">
<svg width="100%" height="100%" viewBox="0 0 150 50" version="1.1" xmlns="http://www.w3.org/2000/svg" xmlns:xlink="http://www.w3.org/1999/xlink" xml:space="preserve" xmlns:serif="http://www.serif.com/" style="fill:white;fill-rule:evenodd;clip-rule:evenodd;stroke-linejoin:round;stroke-miterlimit:2;">
    <g transform="matrix(0.0381336,3.1406,-17.425,0.211577,421.003,14.0391)">
        <rect x="1.299" y="15.72" width="1.401" height="8.28" style="fill:black;fill-rule:nonzero;"/>
    </g>
    <g transform="matrix(0.958815,0,0,1,26.0849,-12)">
        <path d="M-10.12,42.377C-14.065,42.377 -17.068,41.372 -19.128,39.361C-21.189,37.351 -22.219,34.223 -22.219,29.976C-22.219,25.478 -21.189,22.249 -19.128,20.289C-17.068,18.329 -14.065,17.349 -10.12,17.349C-6.174,17.349 -3.171,18.329 -1.111,20.289C0.95,22.249 1.98,25.478 1.98,29.976C1.98,34.223 0.95,37.351 -1.111,39.361C-3.171,41.372 -6.174,42.377 -10.12,42.377ZM-10.12,37.213C-8.084,37.213 -6.595,36.629 -5.653,35.46C-4.711,34.292 -4.239,32.464 -4.239,29.976C-4.239,27.262 -4.711,25.346 -5.653,24.228C-6.595,23.109 -8.084,22.55 -10.12,22.55C-12.18,22.55 -13.682,23.109 -14.624,24.228C-15.566,25.346 -16.037,27.262 -16.037,29.976C-16.037,32.464 -15.566,34.292 -14.624,35.46C-13.682,36.629 -12.18,37.213 -10.12,37.213Z" style="fill-rule:nonzero;"/>
        <path d="M5.071,42L5.071,17.726L10.272,17.726L20.6,32.237L20.6,17.726L26.707,17.726L26.707,42L21.467,42L11.139,27.526L11.139,42L5.071,42Z" style="fill-rule:nonzero;"/>
        <path d="M30.551,42L30.551,17.726L36.62,17.726L36.62,27.149L44.988,17.726L51.923,17.726L43.254,27.639L52.451,42L45.968,42L39.485,31.521L36.62,34.65L36.62,42L30.551,42Z" style="fill-rule:nonzero;"/>
        <path d="M61.384,42L61.384,33.067L52.677,17.726L59.01,17.726L64.438,27.79L69.865,17.726L76.198,17.726L67.491,33.067L67.491,42L61.384,42Z" style="fill-rule:nonzero;"/>
        <path d="M86.639,42.377C82.694,42.377 79.691,41.372 77.63,39.361C75.57,37.351 74.539,34.223 74.539,29.976C74.539,25.478 75.57,22.249 77.63,20.289C79.691,18.329 82.694,17.349 86.639,17.349C90.584,17.349 93.587,18.329 95.648,20.289C97.708,22.249 98.739,25.478 98.739,29.976C98.739,34.223 97.708,37.351 95.648,39.361C93.587,41.372 90.584,42.377 86.639,42.377ZM86.639,37.213C88.674,37.213 90.163,36.629 91.106,35.46C92.048,34.292 92.519,32.464 92.519,29.976C92.519,27.262 92.048,25.346 91.106,24.228C90.163,23.109 88.674,22.55 86.639,22.55C84.578,22.55 83.077,23.109 82.135,24.228C81.192,25.346 80.721,27.262 80.721,29.976C80.721,32.464 81.192,34.292 82.135,35.46C83.077,36.629 84.578,37.213 86.639,37.213Z" style="fill-rule:nonzero;"/>
        <path d="M101.829,42L101.829,17.726L107.898,17.726L107.898,27.337L117.397,27.337L117.397,17.726L123.465,17.726L123.465,42L117.397,42L117.397,32.388L107.898,32.388L107.898,42L101.829,42Z" style="fill-rule:nonzero;"/>
    </g>
    <g transform="matrix(1.01061,0,0,1,5.53488,-26)">
        <path d="M46.159,71L43.856,61.11L46.282,61.11L47.587,67.069L48.939,62.508L48.939,61.11L50.966,61.11L52.67,67.084L54.037,61.11L56.463,61.11L54.175,71L51.887,71L50.228,65.287L48.447,71L46.159,71Z" style="fill-rule:nonzero;"/>
        <path d="M57.722,71L57.722,61.11L65.017,61.11L65.017,63.015L60.195,63.015L60.195,65.088L64.449,65.088L64.449,67.023L60.195,67.023L60.195,69.096L65.017,69.096L65.017,71L57.722,71Z" style="fill-rule:nonzero;"/>
        <path d="M66.199,71L66.199,61.11L71.42,61.11C72.414,61.11 73.163,61.346 73.67,61.817C74.177,62.288 74.43,62.953 74.43,63.813C74.43,64.335 74.331,64.773 74.131,65.126C73.931,65.479 73.668,65.753 73.34,65.948C73.79,66.112 74.144,66.352 74.4,66.669C74.656,66.987 74.784,67.463 74.784,68.098C74.784,69.039 74.507,69.759 73.954,70.255C73.401,70.752 72.608,71 71.574,71L66.199,71ZM68.672,65.134L70.683,65.134C71.113,65.134 71.426,65.037 71.62,64.842C71.815,64.648 71.912,64.376 71.912,64.028C71.912,63.649 71.815,63.365 71.62,63.176C71.426,62.986 71.072,62.892 70.56,62.892L68.672,62.892L68.672,65.134ZM68.672,69.234L70.929,69.234C71.379,69.234 71.715,69.142 71.935,68.958C72.155,68.773 72.265,68.446 72.265,67.975C72.265,67.596 72.158,67.312 71.943,67.122C71.728,66.933 71.359,66.838 70.837,66.838L68.672,66.838L68.672,69.234Z" style="fill-rule:nonzero;"/>
        <path d="M79.344,71L79.344,61.11L83.629,61.11C84.632,61.11 85.477,61.277 86.163,61.609C86.849,61.942 87.371,62.475 87.729,63.207C88.087,63.939 88.267,64.909 88.267,66.117C88.267,67.816 87.875,69.055 87.092,69.833C86.309,70.611 85.154,71 83.629,71L79.344,71ZM81.817,69.096L83.291,69.096C83.823,69.096 84.271,69.016 84.635,68.858C84.998,68.699 85.275,68.405 85.464,67.975C85.653,67.545 85.748,66.925 85.748,66.117C85.748,65.298 85.664,64.665 85.495,64.22C85.326,63.775 85.06,63.463 84.696,63.283C84.333,63.104 83.864,63.015 83.291,63.015L81.817,63.015L81.817,69.096Z" style="fill-rule:nonzero;"/>
        <path d="M89.526,71L89.526,61.11L96.82,61.11L96.82,63.015L91.998,63.015L91.998,65.088L96.252,65.088L96.252,67.023L91.998,67.023L91.998,69.096L96.82,69.096L96.82,71L89.526,71Z" style="fill-rule:nonzero;"/>
        <path d="M101.151,71.154C100.495,71.154 99.884,71.105 99.316,71.008C98.747,70.91 98.259,70.77 97.849,70.585L97.849,68.482C98.299,68.676 98.799,68.835 99.346,68.958C99.894,69.08 100.414,69.142 100.905,69.142C101.519,69.142 101.977,69.086 102.279,68.973C102.581,68.86 102.732,68.615 102.732,68.236C102.732,67.98 102.658,67.775 102.51,67.622C102.361,67.468 102.121,67.332 101.788,67.215C101.455,67.097 101.002,66.956 100.429,66.792C99.753,66.588 99.216,66.36 98.816,66.109C98.417,65.858 98.131,65.554 97.956,65.195C97.782,64.837 97.695,64.397 97.695,63.875C97.695,62.933 98.033,62.211 98.709,61.709C99.385,61.208 100.383,60.957 101.703,60.957C102.277,60.957 102.835,61 103.377,61.087C103.92,61.174 104.36,61.274 104.698,61.387L104.698,63.506C104.258,63.332 103.815,63.204 103.37,63.122C102.924,63.04 102.492,62.999 102.072,62.999C101.519,62.999 101.071,63.05 100.728,63.153C100.385,63.255 100.214,63.491 100.214,63.859C100.214,64.074 100.275,64.246 100.398,64.374C100.521,64.502 100.733,64.617 101.035,64.719C101.337,64.822 101.75,64.944 102.272,65.088C103.08,65.303 103.7,65.561 104.13,65.863C104.56,66.165 104.857,66.513 105.02,66.907C105.184,67.302 105.266,67.744 105.266,68.236C105.266,69.106 104.928,69.81 104.253,70.347C103.577,70.885 102.543,71.154 101.151,71.154Z" style="fill-rule:nonzero;"/>
        <rect x="106.525" y="61.11" width="2.472" height="9.89" style="fill-rule:nonzero;"/>
        <path d="M115.494,71.154C113.784,71.154 112.484,70.721 111.593,69.856C110.702,68.991 110.257,67.77 110.257,66.193C110.257,64.545 110.713,63.26 111.624,62.339C112.535,61.418 113.876,60.957 115.647,60.957C116.251,60.957 116.796,60.993 117.283,61.064C117.769,61.136 118.232,61.243 118.672,61.387L118.672,63.506C118.232,63.342 117.774,63.23 117.298,63.168C116.822,63.107 116.333,63.076 115.831,63.076C114.767,63.076 113.991,63.329 113.505,63.836C113.019,64.343 112.776,65.129 112.776,66.193C112.776,67.166 113.006,67.885 113.467,68.351C113.927,68.817 114.608,69.05 115.509,69.05C116.103,69.05 116.656,68.968 117.167,68.804L117.167,66.931L115.033,66.931L115.033,65.38L119.241,65.38L119.241,70.278C118.893,70.503 118.409,70.706 117.789,70.885C117.17,71.064 116.405,71.154 115.494,71.154Z" style="fill-rule:nonzero;"/>
        <path d="M120.5,71L120.5,61.11L122.619,61.11L126.827,67.023L126.827,61.11L129.314,61.11L129.314,71L127.18,71L122.972,65.103L122.972,71L120.5,71Z" style="fill-rule:nonzero;"/>
        <path d="M134.029,71.154C133.374,71.154 132.762,71.105 132.194,71.008C131.626,70.91 131.137,70.77 130.727,70.585L130.727,68.482C131.178,68.676 131.677,68.835 132.225,68.958C132.772,69.08 133.292,69.142 133.783,69.142C134.397,69.142 134.856,69.086 135.158,68.973C135.46,68.86 135.611,68.615 135.611,68.236C135.611,67.98 135.536,67.775 135.388,67.622C135.24,67.468 134.999,67.332 134.666,67.215C134.334,67.097 133.88,66.956 133.307,66.792C132.631,66.588 132.094,66.36 131.695,66.109C131.295,65.858 131.009,65.554 130.835,65.195C130.661,64.837 130.574,64.397 130.574,63.875C130.574,62.933 130.912,62.211 131.587,61.709C132.263,61.208 133.261,60.957 134.582,60.957C135.155,60.957 135.713,61 136.256,61.087C136.798,61.174 137.238,61.274 137.576,61.387L137.576,63.506C137.136,63.332 136.693,63.204 136.248,63.122C135.803,63.04 135.37,62.999 134.95,62.999C134.397,62.999 133.95,63.05 133.607,63.153C133.264,63.255 133.092,63.491 133.092,63.859C133.092,64.074 133.154,64.246 133.276,64.374C133.399,64.502 133.612,64.617 133.914,64.719C134.216,64.822 134.628,64.944 135.15,65.088C135.959,65.303 136.578,65.561 137.008,65.863C137.438,66.165 137.735,66.513 137.899,66.907C138.063,67.302 138.144,67.744 138.144,68.236C138.144,69.106 137.807,69.81 137.131,70.347C136.455,70.885 135.421,71.154 134.029,71.154Z" style="fill-rule:nonzero;"/>
    </g>
</svg>
